dist/static/img/services/02.svg

<svg width="48" height="48" viewBox="0 0 48 48" fill="none" xmlns="http://www.w3.org/2000/svg">
<g clip-path="url(#clip0_862_1152)">
<path d="M47.235 23.4805C46.7575 22.8353 46.0713 22.3712 45.2902 22.1648C45.2317 22.1497 45.1713 22.1424 45.1111 22.1427H45.0924C45.5702 21.5283 45.8303 20.7753 45.8332 19.9999C45.8332 18.0273 44.2164 16.4286 42.2222 16.4286C40.2279 16.4286 38.6112 18.0273 38.6112 19.9999C38.616 20.3447 38.6722 20.6873 38.7778 21.0161C38.5535 20.8971 38.3159 20.8032 38.0701 20.737C38.0108 20.7219 37.9498 20.7141 37.8888 20.7141H37.8701C38.3479 20.0997 38.6083 19.3467 38.6112 18.5713C38.6112 16.5987 36.9941 15 34.9999 15C33.0056 15 31.3889 16.5987 31.3889 18.5713C31.3917 19.3467 31.6519 20.0997 32.1296 20.7141H32.1109C32.0499 20.7141 31.9889 20.7219 31.9299 20.737C31.6841 20.8032 31.4462 20.8971 31.2219 21.0161C31.3278 20.6873 31.3838 20.3447 31.3889 19.9999C31.3889 18.0273 29.7718 16.4286 27.7776 16.4286C25.7833 16.4286 24.1666 18.0273 24.1666 19.9999C24.1694 20.7753 24.4296 21.5283 24.9076 22.1427H24.8889C24.8271 22.1424 24.7657 22.1505 24.7061 22.1661C23.1035 22.6171 21.998 24.0658 22 25.7143V28.5715C22 28.9657 22.3232 29.2856 22.7221 29.2856H24.1666V34.2856C24.1666 34.6801 24.49 35 24.8889 35C25.2875 35 25.611 34.6801 25.611 34.2856V28.5715C25.611 28.177 25.2875 27.857 24.8889 27.857H23.4445V25.7143C23.4479 24.7478 24.0674 23.889 24.9901 23.5713H29.3008C29.2511 23.806 29.2246 24.0454 29.222 24.2857V27.1429C29.222 27.5371 29.5455 27.857 29.9444 27.857H31.3889V32.857C31.3889 33.2515 31.7123 33.5714 32.1109 33.5714C32.5098 33.5714 32.8333 33.2515 32.8333 32.857V27.1429C32.8333 26.7484 32.5098 26.4285 32.1109 26.4285H30.6665V24.2857C30.6679 23.3192 31.2877 22.4595 32.2109 22.1427H37.7891C38.7123 22.4595 39.3318 23.3192 39.3332 24.2857V26.4285H37.8888C37.4899 26.4285 37.1667 26.7484 37.1667 27.1429V32.857C37.1667 33.2515 37.4899 33.5714 37.8888 33.5714C38.2877 33.5714 38.6112 33.2515 38.6112 32.857V27.857H40.0556C40.4542 27.857 40.7777 27.5371 40.7777 27.1429V24.2857C40.7752 24.0454 40.7489 23.806 40.6992 23.5713H45.0119C45.4422 23.7082 45.8171 23.9772 46.0818 24.3396C46.3866 24.735 46.5527 25.2172 46.5555 25.7143V27.857H45.1111C44.7122 27.857 44.3887 28.177 44.3887 28.5715V34.2856C44.3887 34.6801 44.7122 35 45.1111 35C45.51 35 45.8332 34.6801 45.8332 34.2856V29.2856H47.2776C47.6765 29.2856 48 28.9657 48 28.5715V25.7143C47.9972 24.9071 47.7288 24.1231 47.235 23.4805ZM25.611 19.9999C25.611 18.8161 26.5811 17.8572 27.7776 17.8572C28.9743 17.8572 29.9444 18.8161 29.9444 19.9999C29.9444 21.1832 28.9743 22.1427 27.7776 22.1427C26.5811 22.1427 25.611 21.1832 25.611 19.9999ZM32.8333 18.5713C32.8333 17.3875 33.8034 16.4286 34.9999 16.4286C36.1966 16.4286 37.1667 17.3875 37.1667 18.5713C37.1667 19.7546 36.1966 20.7141 34.9999 20.7141C33.8034 20.7141 32.8333 19.7546 32.8333 18.5713ZM42.2222 17.8572C43.4186 17.8572 44.3887 18.8161 44.3887 19.9999C44.3887 21.1832 43.4186 22.1427 42.2222 22.1427C41.0257 22.1427 40.0556 21.1832 40.0556 19.9999C40.0556 18.8161 41.0257 17.8572 42.2222 17.8572Z" fill="white"/>
<path d="M39.2139 41.6001H8.8136V35.2H10.1617C11.3064 37.6149 13.9989 38.8832 16.5896 38.2286C19.1807 37.5739 20.9469 35.1781 20.8067 32.5094C20.6665 29.8408 18.659 27.6437 16.0138 27.2638V26.4001C16.0094 23.7223 14.1134 21.4211 11.4857 20.9053C12.7121 19.623 13.1292 17.7676 12.5691 16.084C12.0089 14.4001 10.5641 13.1641 8.8136 12.8718V6.40006H39.2139V13.6H40.8139V3.99988C40.8111 1.79184 39.0221 0.00219052 36.8137 0H11.2138C9.00543 0.00219052 7.2164 1.79184 7.2139 3.99988V12.8718C5.46336 13.1641 4.01856 14.4001 3.45841 16.084C2.89827 17.7676 3.3154 19.623 4.54178 20.9053C1.9141 21.4211 0.0180529 23.7223 0.0136719 26.4001V32.7998C0.0136719 34.1254 1.08828 35.2 2.41385 35.2H7.2139V44C7.2164 46.2077 9.00543 47.9973 11.2138 48.0001H36.8137C39.0221 47.9973 40.8111 46.2077 40.8139 44V34.3999H39.2139V41.6001ZM19.2139 32.7998C19.2139 35.0091 17.4226 36.8 15.2137 36.8C13.0047 36.8 11.2138 35.0091 11.2138 32.7998C11.2138 30.5906 13.0047 28.8 15.2137 28.8C17.422 28.8025 19.211 30.5918 19.2139 32.7998ZM11.2138 1.60002H36.8137C38.1393 1.60002 39.2139 2.67431 39.2139 3.99988V4.80005H8.8136V3.99988C8.8136 2.67431 9.88852 1.60002 11.2138 1.60002ZM8.01375 14.4001C9.78087 14.4001 11.2138 15.8324 11.2138 17.5999C11.2138 19.3673 9.78087 20.7999 8.01375 20.7999C6.24663 20.7999 4.81372 19.3673 4.81372 17.5999C4.81372 15.8324 6.24663 14.4001 8.01375 14.4001ZM1.61369 32.7998V26.4001C1.6165 24.1917 3.40553 22.4024 5.61388 22.3999H10.4136C12.622 22.4024 14.411 24.1917 14.4138 26.4001V27.2638C12.9399 27.4637 11.6078 28.2476 10.7172 29.439C9.82718 30.6306 9.45229 32.1295 9.67791 33.6H2.41385C1.97199 33.6 1.61369 33.2417 1.61369 32.7998ZM36.8137 46.4001H11.2138C9.88852 46.4001 8.8136 45.3255 8.8136 44V43.2001H39.2139V44C39.2139 45.3255 38.1393 46.4001 36.8137 46.4001Z" fill="white"/>
<path d="M36.0137 8H37.6137V9.60002H36.0137V8Z" fill="white"/>
<path d="M32.8135 8H34.4135V9.60002H32.8135V8Z" fill="white"/>
<path d="M29.6143 8H31.2143V9.60002H29.6143V8Z" fill="white"/>
<path d="M10.4141 8H12.0141V9.60002H10.4141V8Z" fill="white"/>
<path d="M25.6132 44H22.4134C21.9716 44 21.6133 44.3583 21.6133 44.8002C21.6133 45.2417 21.9716 45.6 22.4134 45.6H25.6132C26.055 45.6 26.4133 45.2417 26.4133 44.8002C26.4133 44.3583 26.055 44 25.6132 44Z" fill="white"/>
<path d="M14.4135 30.3999V31.9999H12.8135V33.5999H14.4135V35.1999H16.0135V33.5999H17.6135V31.9999H16.0135V30.3999H14.4135Z" fill="white"/>
</g>
<defs>
<clipPath id="clip0_862_1152">
<rect width="48" height="48" fill="white"/>
</clipPath>
</defs>
</svg>

<svg width="48" height="48" viewBox="0 0 48 48" fill="none" xmlns="http://www.w3.org/2000/svg"><g clip-path="url(#clip0_862_1152)" fill="#fff"><path d="M47.235 23.48a3.544 3.544 0 00-1.945-1.315.704.704 0 00-.179-.022h-.019A3.511 3.511 0 0045.833 20c0-1.973-1.617-3.571-3.61-3.571-1.995 0-3.612 1.598-3.612 3.57.005.346.061.688.167 1.017a3.395 3.395 0 00-.708-.279.735.735 0 00-.181-.023h-.019a3.511 3.511 0 00.741-2.143C38.611 16.6 36.994 15 35 15c-1.994 0-3.611 1.599-3.611 3.571.003.776.263 1.529.74 2.143h-.018a.731.731 0 00-.181.023c-.246.066-.484.16-.708.28.106-.33.162-.672.167-1.017 0-1.973-1.617-3.571-3.611-3.571-1.995 0-3.611 1.598-3.611 3.57a3.51 3.51 0 00.74 2.144h-.018a.708.708 0 00-.183.023A3.69 3.69 0 0022 25.714v2.858c0 .394.323.714.722.714h1.445v5c0 .394.323.714.722.714.399 0 .722-.32.722-.714V28.57a.719.719 0 00-.722-.714h-1.444v-2.143a2.28 2.28 0 011.545-2.143h4.31a3.64 3.64 0 00-.078.715v2.857c0 .394.323.714.722.714h1.445v5c0 .395.323.714.722.714.399 0 .722-.32.722-.714v-5.714a.719.719 0 00-.722-.715h-1.444v-2.142a2.274 2.274 0 011.544-2.143h5.578a2.274 2.274 0 011.544 2.143v2.142H37.89a.718.718 0 00-.722.715v5.714c0 .395.323.714.722.714.399 0 .722-.32.722-.714v-5h1.445c.398 0 .722-.32.722-.714v-2.857a3.631 3.631 0 00-.079-.715h4.313c.43.137.805.406 1.07.769.305.395.47.877.474 1.374v2.143H45.11a.719.719 0 00-.722.715v5.714c0 .394.323.714.722.714.399 0 .722-.32.722-.714v-5h1.445c.398 0 .722-.32.722-.715v-2.857a3.686 3.686 0 00-.765-2.233zM25.611 20c0-1.184.97-2.143 2.167-2.143 1.196 0 2.166.96 2.166 2.143 0 1.183-.97 2.143-2.166 2.143-1.197 0-2.167-.96-2.167-2.143zm7.222-1.429c0-1.184.97-2.142 2.167-2.142 1.197 0 2.167.959 2.167 2.142 0 1.184-.97 2.143-2.167 2.143-1.197 0-2.167-.96-2.167-2.143zm9.39-.714c1.196 0 2.166.96 2.166 2.143 0 1.183-.97 2.143-2.167 2.143A2.155 2.155 0 0140.056 20c0-1.184.97-2.143 2.166-2.143z"/><path d="M39.214 41.6h-30.4v-6.4h1.348a5.596 5.596 0 105.852-7.936V26.4a5.609 5.609 0 00-4.528-5.495 4.789 4.789 0 00-2.672-8.033V6.4h30.4v7.2h1.6V4a4.004 4.004 0 00-4-4h-25.6a4.004 4.004 0 00-4 4v8.872a4.789 4.789 0 00-2.672 8.033A5.609 5.609 0 00.014 26.4v6.4a2.4 2.4 0 002.4 2.4h4.8V44a4.005 4.005 0 004 4h25.6a4.005 4.005 0 004-4v-9.6h-1.6v7.2zm-20-8.8a4 4 0 11-8 0 4 4 0 018 0zm-8-31.2h25.6a2.4 2.4 0 012.4 2.4v.8h-30.4V4a2.4 2.4 0 012.4-2.4zm-3.2 12.8a3.2 3.2 0 110 6.4 3.2 3.2 0 010-6.4zm-6.4 18.4v-6.4a4.005 4.005 0 014-4h4.8a4.005 4.005 0 014 4v.864A5.546 5.546 0 009.678 33.6H2.414a.8.8 0 01-.8-.8zm35.2 13.6h-25.6a2.4 2.4 0 01-2.4-2.4v-.8h30.4v.8a2.4 2.4 0 01-2.4 2.4z"/><path d="M36.014 8h1.6v1.6h-1.6V8zm-3.201 0h1.6v1.6h-1.6V8zm-3.199 0h1.6v1.6h-1.6V8zm-19.2 0h1.6v1.6h-1.6V8zm15.199 36h-3.2a.8.8 0 000 1.6h3.2a.8.8 0 000-1.6zM14.414 30.4V32h-1.6v1.6h1.6v1.6h1.6v-1.6h1.6V32h-1.6v-1.6h-1.6z"/></g><defs><clipPath id="clip0_862_1152"><path fill="#fff" d="M0 0h48v48H0z"/></clipPath></defs></svg>
